X:1
T:Maids of Mitchellstown, The
R:reel
D:Kevin Burke: Up Close.
Z:id:hn-reel-28
M:4/4
L:1/8
K:Ddor
D2AG EG~G2|A2GA cAGE|D2AG EG~G2|(3ABc GE EDD2:|
EGAB c2BG|Adde f2ed|cAGE ~F3G|1 (3ABc GE EDD2:|2 (3ABc Bd cAGE|]
</abc>
